X: 172
T: Lady Ann Stewarts Strathspey
R: strathspey
M: C
L: 1/8
Z: 2012 John Chambers <jc:trillian.mit.edu>
B: J. Anderson "Budget of Strathspeys, Reels and Country Dances" (Early 1800s) p.17 #2
F: http://imslp.org/wiki/Anderson%27s_Budget_of_Strathspeys,_Reels_and_Country_Dances_(Various)
K: C
(g/a//b//) |\
c'>gg>a g2(eg) | a.cg.c Bddb | c'>gg>a g2(ec) | (B/c/d) (BA) Gcc :|
e |\
c>eA>c (Gc)(Ed) | (ce)(dc) (Bd)(de) | c>eA>c (Gc)(Ec) | (B/c/d) (BA) (Gc)(c ||
e) |\
c>eA>e GcEd | (c/d/).e/.f/ (gc) Bdde | cEFG ABca | gcBA Gcc |]

%%sep 2 1 500
%%sep 1 1 500

